X: 1
T: Bull at the Wagon
C: Earl Collins
%D:1929
P: AEAE Tuning
R: reel
Z: 2020 John Chambers <jc:trillian.mit.edu>
S: https://www.facebook.com/groups/Fiddletuneoftheday/
S: https://www.facebook.com/groups/Fiddletuneoftheday/photos/
D: https://www.youtube.com/watch?v=WHOPq0qeCNI
D: https://www.youtube.com/watch?v=bkElwIbRCV0
M: C|
L: 1/8
K: A
AB |: "A"cdcA cdcA | ecea fecA |\
[1,3 "E"BABc BcBA | Bceg fecA :|\
[2,4 "A"c2-c2 "E"B2ag | edBc "A"A2 :|
|: cB |\
"A"Aceg agae | "D"fefa "A"fecA |\
"D"dfed "A"cBAc |1,3 "E7"BABc B2 :|\
[2 "E7"BABc "A"A2 :|4 "E7"BAG2 "A"A2- |]
|: [A2A,2-] |\
"A"A,2A,2- A,B,CA, | "E"B,6 B,2 | "A"A,B,CD EFAB | cABc "E7"BAGE |\
"A"A,2A,2- A,B,CA, | "E"B,4- B,CB,C | "A"A,B,CD EFAB |"E7"cABc "A"A2 :|
%%text Various A and/or E notes are played as pickup notes to the 3rd part.
